assests/images/6.svg

<svg xmlns="http://www.w3.org/2000/svg" xmlns:xlink="http://www.w3.org/1999/xlink" width="1024" zoomAndPan="magnify" viewBox="0 0 768 767.999994" height="1024" preserveAspectRatio="xMidYMid meet" version="1.0"><defs><clipPath id="f3c29ae53b"><path d="M 153.601562 192.191406 L 614 192.191406 L 614 575.441406 L 153.601562 575.441406 Z M 153.601562 192.191406 " clip-rule="nonzero"/></clipPath></defs><path fill="#100f0d" d="M 199.832031 498.792969 L 184.496094 498.792969 L 184.496094 544.78125 L 199.832031 544.78125 L 199.832031 498.792969 " fill-opacity="1" fill-rule="nonzero"/><path fill="#100f0d" d="M 230.503906 498.792969 L 215.167969 498.792969 L 215.167969 514.121094 L 230.503906 514.121094 L 230.503906 498.792969 " fill-opacity="1" fill-rule="nonzero"/><path fill="#100f0d" d="M 230.503906 529.453125 L 215.167969 529.453125 L 215.167969 544.78125 L 230.503906 544.78125 L 230.503906 529.453125 " fill-opacity="1" fill-rule="nonzero"/><path fill="#100f0d" d="M 383.851562 261.175781 C 425.976562 261.175781 452.855469 274.796875 452.855469 284.171875 C 452.855469 293.546875 425.976562 307.167969 383.851562 307.167969 C 341.722656 307.167969 314.84375 293.546875 314.84375 284.171875 C 314.84375 274.796875 341.722656 261.175781 383.851562 261.175781 Z M 326.785156 312.96875 C 342.152344 319.113281 362.417969 322.496094 383.851562 322.496094 C 405.285156 322.496094 425.550781 319.113281 440.914062 312.96875 C 458.507812 305.9375 468.191406 295.707031 468.191406 284.171875 C 468.191406 272.636719 458.507812 262.410156 440.914062 255.375 C 425.550781 249.230469 405.285156 245.847656 383.851562 245.847656 C 362.417969 245.847656 342.152344 249.230469 326.785156 255.375 C 309.195312 262.410156 299.507812 272.636719 299.507812 284.171875 C 299.507812 295.707031 309.195312 305.9375 326.785156 312.96875 " fill-opacity="1" fill-rule="nonzero"/><g clip-path="url(#f3c29ae53b)"><path fill="#100f0d" d="M 598.535156 514.121094 C 598.535156 539.484375 577.902344 560.113281 552.53125 560.113281 L 261.171875 560.113281 L 261.171875 483.460938 L 284.175781 483.460938 L 284.175781 498.792969 L 299.507812 498.792969 L 299.507812 483.460938 L 322.511719 483.460938 L 322.511719 498.792969 L 337.84375 498.792969 L 337.84375 483.460938 L 360.847656 483.460938 L 360.847656 529.453125 L 376.183594 529.453125 L 376.183594 483.460938 L 399.183594 483.460938 L 399.183594 498.792969 L 414.519531 498.792969 L 414.519531 483.460938 L 437.523438 483.460938 L 437.523438 498.792969 L 452.855469 498.792969 L 452.855469 483.460938 L 475.859375 483.460938 L 475.859375 529.453125 L 491.195312 529.453125 L 491.195312 483.460938 L 514.195312 483.460938 L 514.195312 498.792969 L 529.53125 498.792969 L 529.53125 483.460938 L 552.53125 483.460938 L 552.53125 498.792969 L 567.867188 498.792969 L 567.867188 481.523438 C 579.921875 478.410156 590.539062 471.707031 598.535156 462.636719 Z M 279.113281 444.386719 C 252.710938 429.867188 238.167969 411.078125 238.167969 391.480469 L 238.167969 323.839844 C 246.320312 333.71875 257.59375 342.742188 271.722656 350.507812 C 275.707031 352.695312 279.863281 354.753906 284.175781 356.679688 L 284.175781 391.480469 L 299.507812 391.480469 L 299.507812 362.75 C 306.863281 365.308594 314.550781 367.515625 322.511719 369.363281 L 322.511719 391.480469 L 337.84375 391.480469 L 337.84375 372.414062 C 345.339844 373.667969 353.027344 374.609375 360.847656 375.234375 L 360.847656 422.140625 L 376.183594 422.140625 L 376.183594 376.050781 C 378.726562 376.117188 381.285156 376.152344 383.851562 376.152344 L 399.183594 376.152344 L 399.183594 391.480469 L 414.519531 391.480469 L 414.519531 376.152344 L 437.523438 376.152344 L 437.523438 391.480469 L 452.855469 391.480469 L 452.855469 376.152344 L 475.859375 376.152344 L 475.859375 422.140625 L 491.195312 422.140625 L 491.195312 376.152344 L 514.195312 376.152344 L 514.195312 391.480469 L 529.53125 391.480469 L 529.53125 376.152344 L 552.53125 376.152344 L 552.53125 391.480469 L 567.867188 391.480469 L 567.867188 378.789062 C 585.714844 385.117188 598.535156 402.15625 598.535156 422.140625 C 598.535156 447.503906 577.902344 468.132812 552.53125 468.132812 L 383.851562 468.132812 C 344.160156 468.132812 306.960938 459.699219 279.113281 444.386719 Z M 279.113281 231.269531 C 306.960938 215.953125 344.160156 207.523438 383.851562 207.523438 C 423.539062 207.523438 460.738281 215.953125 488.585938 231.269531 C 514.988281 245.789062 529.53125 264.570312 529.53125 284.171875 C 529.53125 303.773438 514.988281 322.558594 488.585938 337.074219 C 460.738281 352.390625 423.539062 360.820312 383.851562 360.820312 C 344.160156 360.820312 306.960938 352.390625 279.113281 337.074219 C 252.710938 322.558594 238.167969 303.773438 238.167969 284.171875 C 238.167969 264.570312 252.710938 245.789062 279.113281 231.269531 Z M 529.53125 360.820312 L 473.476562 360.820312 C 481.441406 357.796875 488.976562 354.359375 495.976562 350.507812 C 510.105469 342.742188 521.378906 333.71875 529.53125 323.839844 Z M 245.835938 560.113281 L 169.164062 560.113281 L 169.164062 483.460938 L 245.835938 483.460938 Z M 552.53125 360.820312 L 544.863281 360.820312 L 544.863281 284.171875 C 544.863281 258.730469 527.503906 235.167969 495.976562 217.835938 C 465.898438 201.296875 426.082031 192.191406 383.851562 192.191406 C 341.621094 192.191406 301.800781 201.296875 271.722656 217.835938 C 240.195312 235.167969 222.835938 258.730469 222.835938 284.171875 L 222.835938 391.480469 C 222.835938 416.925781 240.195312 440.484375 271.722656 457.816406 C 278.722656 461.667969 286.257812 465.109375 294.222656 468.132812 L 161.496094 468.132812 C 157.261719 468.132812 153.828125 471.5625 153.828125 475.796875 L 153.828125 567.777344 C 153.828125 572.011719 157.261719 575.441406 161.496094 575.441406 L 552.53125 575.441406 C 586.355469 575.441406 613.871094 547.933594 613.871094 514.121094 L 613.871094 422.140625 C 613.871094 388.332031 586.355469 360.820312 552.53125 360.820312 " fill-opacity="1" fill-rule="nonzero"/></g></svg>

<svg xmlns="http://www.w3.org/2000/svg" width="1024" viewBox="0 0 768 768" height="1024" version="1.0"><defs><clipPath id="a"><path d="M153.602 192.191H614v383.25H153.602Zm0 0"/></clipPath></defs><path fill="#100f0d" d="M199.832 498.793h-15.336v45.988h15.336v-45.988M230.504 498.793h-15.336v15.328h15.336v-15.328M230.504 529.453h-15.336v15.328h15.336v-15.328M383.852 261.176c42.125 0 69.003 13.62 69.003 22.996 0 9.375-26.878 22.996-69.003 22.996-42.13 0-69.008-13.621-69.008-22.996 0-9.375 26.879-22.996 69.008-22.996Zm-57.067 51.793c15.367 6.144 35.633 9.527 57.067 9.527 21.433 0 41.699-3.383 57.062-9.527 17.594-7.031 27.277-17.262 27.277-28.797s-9.683-21.762-27.277-28.797c-15.363-6.145-35.629-9.527-57.062-9.527-21.434 0-41.7 3.382-57.067 9.527-17.59 7.035-27.277 17.262-27.277 28.797s9.687 21.765 27.277 28.797"/><g clip-path="url(#a)"><path fill="#100f0d" d="M598.535 514.121c0 25.363-20.633 45.992-46.004 45.992h-291.36v-76.652h23.005v15.332h15.332v-15.332h23.004v15.332h15.332v-15.332h23.004v45.992h15.336v-45.992h23v15.332h15.336v-15.332h23.003v15.332h15.332v-15.332h23.004v45.992h15.336v-45.992h23v15.332h15.336v-15.332h23v15.332h15.336v-17.27c12.055-3.113 22.672-9.816 30.668-18.886Zm-319.422-69.734c-26.402-14.52-40.945-33.309-40.945-52.907v-67.64c8.152 9.879 19.426 18.902 33.555 26.668a169.413 169.413 0 0 0 12.453 6.172v34.8h15.332v-28.73c7.355 2.559 15.043 4.766 23.004 6.613v22.117h15.332v-19.066a269.88 269.88 0 0 0 23.004 2.82v46.907h15.336v-46.09c2.543.066 5.101.101 7.668.101h15.332v15.328h15.336v-15.328h23.003v15.328h15.332v-15.328h23.004v45.989h15.336v-45.989h23v15.328h15.336v-15.328h23v15.328h15.336v-12.69c17.848 6.327 30.668 23.366 30.668 43.35 0 25.364-20.633 45.993-46.004 45.993h-168.68c-39.69 0-76.89-8.434-104.738-23.746Zm0-213.117c27.848-15.317 65.047-23.747 104.739-23.747 39.687 0 76.886 8.43 104.734 23.747 26.402 14.52 40.945 33.3 40.945 52.902 0 19.601-14.543 38.387-40.945 52.902-27.848 15.317-65.047 23.746-104.734 23.746-39.692 0-76.891-8.43-104.739-23.746-26.402-14.515-40.945-33.3-40.945-52.902 0-19.602 14.543-38.383 40.945-52.902Zm250.418 129.55h-56.054c7.964-3.023 15.5-6.46 22.5-10.312 14.128-7.766 25.402-16.79 33.554-26.668ZM245.836 560.113h-76.672v-76.652h76.672ZM552.53 360.82h-7.668v-76.648c0-25.442-17.36-49.004-48.886-66.336-30.079-16.54-69.895-25.645-112.125-25.645-42.23 0-82.051 9.106-112.13 25.645-31.527 17.332-48.886 40.894-48.886 66.336V391.48c0 25.446 17.36 49.004 48.887 66.336 7 3.852 14.535 7.293 22.5 10.317H161.496a7.665 7.665 0 0 0-7.668 7.664v91.98a7.665 7.665 0 0 0 7.668 7.664h391.035c33.824 0 61.34-27.507 61.34-61.32v-91.98c0-33.809-27.516-61.32-61.34-61.32"/></g></svg>
